modules/zondicons/icons/compose.svg

<?xml version="1.0" encoding="UTF-8" standalone="no"?>
<svg width="20px" height="20px" viewBox="0 0 20 20" version="1.1" xmlns="http://www.w3.org/2000/svg" xmlns:xlink="http://www.w3.org/1999/xlink">
    <!-- Generator: Sketch 3.7.2 (28276) - http://www.bohemiancoding.com/sketch -->
    <title>compose</title>
    <desc>Created with Sketch.</desc>
    <defs></defs>
    <g id="Page-1" stroke="none" stroke-width="1" fill="none" fill-rule="evenodd">
        <g id="compose" fill="#000000">
            <path d="M2,4 L2,18 L16,18 L16,12 L18,10 L18,20 L17,20 L0,20 L0,19 L0,3 L0,2 L10,2 L8,4 L2,4 Z M12.2928932,3.70710678 L4,12 L4,16 L8,16 L16.2928932,7.70710678 L12.2928932,3.70710678 Z M13.7071068,2.29289322 L16,0 L20,4 L17.7071068,6.29289322 L13.7071068,2.29289322 Z" id="Combined-Shape"></path>
        </g>
    </g>
</svg>

<svg width="20" height="20" viewBox="0 0 20 20" xmlns="http://www.w3.org/2000/svg"><path d="M2 4v14h14v-6l2-2v10H0V2h10L8 4H2zm10.293-.293L4 12v4h4l8.293-8.293-4-4zm1.414-1.414L16 0l4 4-2.293 2.293-4-4z" fill="#000" fill-rule="evenodd"/></svg>
